icons/plexis/48/wow-launcher.svg

<svg viewBox="0 0 48 48" xmlns="http://www.w3.org/2000/svg" xmlns:xlink="http://www.w3.org/1999/xlink">
  <linearGradient id="a" gradientUnits="userSpaceOnUse" x2="0" y1="47" y2="1">
    <stop offset="0" stop-color="#3d1105"/>
    <stop offset="1" stop-color="#561901"/>
  </linearGradient>
  <path d="m24 1c22.703 0 23 .297 23 23 0 22.703-.297 23-23 23-22.703 0-23-.297-23-23 0-22.703.297-23 23-23z" fill="url(#a)"/>
  <g transform="matrix(3.543307 0 0 3.543307 .00000022 -.03228249)">
    <path d="m7.06 2.831c-.76 0-1.465.205-2.081.556h-1.588v1.57c-.357.621-.564 1.34-.564 2.108 0 .768.207 1.487.564 2.108v1.552h1.552c.624.363 1.343.573 2.117.573.774 0 1.501-.21 2.125-.573h1.543v-1.543c.361-.623.564-1.345.564-2.117 0-.772-.204-1.494-.564-2.117v-1.561h-1.579c-.617-.351-1.33-.556-2.09-.556zm.018.714c1.94 0 3.51 1.57 3.51 3.51 0 1.94-1.57 3.519-3.51 3.519-1.94 0-3.51-1.579-3.51-3.519 0-1.94 1.57-3.51 3.51-3.51z" fill-opacity=".157"/>
    <path d="m6.773 2.549c-.76 0-1.465.205-2.081.556h-1.588v1.57c-.357.621-.564 1.34-.564 2.108 0 .768.207 1.487.564 2.108v1.552h1.552c.624.363 1.343.573 2.117.573.774 0 1.501-.21 2.125-.573h1.543v-1.543c.361-.623.564-1.345.564-2.117 0-.772-.204-1.494-.564-2.117v-1.561h-1.579c-.617-.351-1.33-.556-2.09-.556zm.018.714c1.94 0 3.51 1.57 3.51 3.51 0 1.94-1.57 3.519-3.51 3.519-1.94 0-3.51-1.579-3.51-3.519 0-1.94 1.57-3.51 3.51-3.51z" fill="#d59326"/>
    <path d="m8.05 4.917l.185.256-.415 2.743c-.305-1.235-.704-2.872-.706-2.875l-.67 2.866-.52-2.496.106-.485-1.508-.018c.121.092.213.247.309.37l.952 3.872c-.078.145-.196.283-.291.406.509.003 1.028.006 1.464.009l-.106-.459.291-1.332.247 1.446-.044.344 1.438-.009-.009-.009-.194-.37.582-3.634.441-.644c-.517.006-1.035.012-1.552.018z" fill-opacity=".157"/>
    <path d="m7.764 4.649l.185.256-.415 2.743c-.305-1.235-.704-2.872-.706-2.875l-.67 2.866-.52-2.496.106-.485-1.508-.018c.121.092.213.247.309.37l.952 3.872c-.078.145-.196.283-.291.406.509.003 1.028.006 1.464.009l-.106-.459.291-1.332.247 1.446-.044.344 1.438-.009-.009-.009-.194-.37.582-3.634.441-.644c-.517.006-1.035.012-1.552.018z" fill="#d59326"/>
  </g>
</svg>

<svg xmlns="http://www.w3.org/2000/svg" viewBox="0 0 48 48">
 <defs>
  <linearGradient id="linearGradient4404" y1="47" x2="0" y2="1" gradientUnits="userSpaceOnUse">
   <stop style="stop-color:#3d1105;stop-opacity:1"/>
   <stop offset="1" style="stop-color:#561901;stop-opacity:1"/>
  </linearGradient>
 </defs>
 <g>
  
  
  
 </g>
 <g>
  <path d="m 24 1 c 22.703 0 23 0.297 23 23 c 0 22.703 -0.297 23 -23 23 -22.703 0 -23 -0.297 -23 -23 0 -22.703 0.297 -23 23 -23 z" style="fill:url(#linearGradient4404);fill-opacity:1"/>
 </g>
 <g>
  
 </g>
 <g transform="matrix(3.543307,0,0,3.543307,2.2e-7,-0.03228249)">
  <path d="m 7.06,2.831 c -0.76,0 -1.465,0.205 -2.081,0.556 l -1.588,0 0,1.57 c -0.357,0.621 -0.564,1.34 -0.564,2.108 0,0.768 0.207,1.487 0.564,2.108 l 0,1.552 1.552,0 c 0.624,0.363 1.343,0.573 2.117,0.573 0.774,0 1.501,-0.21 2.125,-0.573 l 1.543,0 0,-1.543 c 0.361,-0.623 0.564,-1.345 0.564,-2.117 0,-0.772 -0.204,-1.494 -0.564,-2.117 l 0,-1.561 -1.579,0 C 8.532,3.036 7.819,2.831 7.059,2.831 Z m 0.018,0.714 c 1.94,0 3.51,1.57 3.51,3.51 0,1.94 -1.57,3.519 -3.51,3.519 -1.94,0 -3.51,-1.579 -3.51,-3.519 0,-1.94 1.57,-3.51 3.51,-3.51 z" style="fill:#000;fill-opacity:0.157;stroke:none"/>
  <path d="m 6.773,2.549 c -0.76,0 -1.465,0.205 -2.081,0.556 l -1.588,0 0,1.57 C 2.747,5.296 2.54,6.015 2.54,6.783 c 0,0.768 0.207,1.487 0.564,2.108 l 0,1.552 1.552,0 c 0.624,0.363 1.343,0.573 2.117,0.573 0.774,0 1.501,-0.21 2.125,-0.573 l 1.543,0 0,-1.543 c 0.361,-0.623 0.564,-1.345 0.564,-2.117 0,-0.772 -0.204,-1.494 -0.564,-2.117 l 0,-1.561 -1.579,0 C 8.245,2.754 7.532,2.549 6.772,2.549 Z m 0.018,0.714 c 1.94,0 3.51,1.57 3.51,3.51 0,1.94 -1.57,3.519 -3.51,3.519 -1.94,0 -3.51,-1.579 -3.51,-3.519 0,-1.94 1.57,-3.51 3.51,-3.51 z" style="fill:#d59326;fill-opacity:1;stroke:none"/>
  <path d="M 8.05,4.917 8.235,5.173 7.82,7.916 C 7.515,6.681 7.116,5.044 7.114,5.041 L 6.444,7.907 5.924,5.411 6.03,4.926 4.522,4.908 C 4.643,5 4.735,5.155 4.831,5.278 L 5.783,9.15 C 5.705,9.295 5.587,9.433 5.492,9.556 6.001,9.559 6.52,9.562 6.956,9.565 L 6.85,9.106 7.141,7.774 7.388,9.22 7.344,9.564 8.782,9.555 8.773,9.546 8.579,9.176 9.161,5.542 9.602,4.898 C 9.085,4.904 8.567,4.91 8.05,4.916 Z" style="fill:#000;fill-opacity:0.157;stroke:none"/>
  <path d="M 7.764,4.649 7.949,4.905 7.534,7.648 C 7.229,6.413 6.83,4.776 6.828,4.773 L 6.158,7.639 5.638,5.143 5.744,4.658 4.236,4.64 C 4.357,4.732 4.449,4.887 4.545,5.01 L 5.497,8.882 C 5.419,9.027 5.301,9.165 5.206,9.288 5.715,9.291 6.234,9.294 6.67,9.297 L 6.564,8.838 6.855,7.506 7.102,8.952 7.058,9.296 8.496,9.287 8.487,9.278 8.293,8.908 8.875,5.274 9.316,4.63 C 8.799,4.636 8.281,4.642 7.764,4.648 Z" style="fill:#d59326;fill-opacity:1;stroke:none"/>
 </g>
</svg>
